icons/framer.svg

<svg width="24" height="24" viewBox="0 0 24 24" fill="none" xmlns="http://www.w3.org/2000/svg">
<path fill-rule="evenodd" clip-rule="evenodd" d="M5.07612 2.61732C5.2309 2.24364 5.59554 2 6 2H18C18.5523 2 19 2.44772 19 3V9C19 9.55228 18.5523 10 18 10H14.4142L18.7071 14.2929C18.9931 14.5789 19.0787 15.009 18.9239 15.3827C18.7691 15.7564 18.4045 16 18 16H13V21C13 21.4045 12.7564 21.7691 12.3827 21.9239C12.009 22.0787 11.5789 21.9931 11.2929 21.7071L5.29289 15.7071C5.10536 15.5196 5 15.2652 5 15V9C5 8.44772 5.44771 8 6 8H9.58579L5.29289 3.70711C5.00689 3.42111 4.92134 2.99099 5.07612 2.61732ZM12.4142 8H17V4H8.41421L12.4142 8ZM11.5858 10H7V14H15.5858L11.5858 10ZM11 16H8.41421L11 18.5858V16Z" fill="black"/>
</svg>

<svg
  width="24"
  height="24"
  viewBox="0 0 24 24"
  xmlns="http://www.w3.org/2000/svg"
>
  <path
    fill-rule="evenodd"
    clip-rule="evenodd"
    d="M5.076 2.617A1 1 0 0 1 6 2h12a1 1 0 0 1 1 1v6a1 1 0 0 1-1 1h-3.586l4.293 4.293A1 1 0 0 1 18 16h-5v5a1 1 0 0 1-1.707.707l-6-6A1 1 0 0 1 5 15V9a1 1 0 0 1 1-1h3.586L5.293 3.707a1 1 0 0 1-.217-1.09zM12.414 8H17V4H8.414l4 4zm-.828 2H7v4h8.586l-4-4zM11 16H8.414L11 18.586V16z"
  />
</svg>
